!!!SOCIAL_FUNCTION:	songs connected with legends
!!!PDT:	1929
!!!OTL: No_44_It_Is_Time_to_Pay_Your_Wager.krn
!!!REG: Southwest
!!!LANG: Non-Tone
!!!LING_GROUP: Uto-Aztecan
**kern
*staff1
=1-
=
*clefF4
*k[]
*M2/4
8.e\L
16c\Jk
16B\LL
16A\J
8B\J
=2
2B\
=3
8.e\L
16c\Jk
16B\LL
16A\J
8B\J
=4||
*M3/4
[4B\
16B\LL]
16A\J
8A\J
16A\LL
16G\J
8A\J
=5||
*M2/4
4A\
8.r
16A\
=6||
*M3/4
8A\L
16.B\L
32B\JJk
16B\LK
8.A\J
32A\LLK
16.A\
16A\
16A\JJ
=7
8B\L
8A\J
8B\L
8A\J
16B\LL
16A\
16A\JJ
16r
=8||
*M2/4
8.c\L
16c\Jk
16B\LL
16A\J
8B\J
=9||
*M3/4
[4B\
16B\LL]
16A\J
8A\J
16A\LL
16G\J
8A\J
=10||
*M2/4
2A\
==:|!
*-
